X:366
T:Johnny MacGill
R:Jig
B:The Athole Collection
M:6/8
L:1/8
K:D Minor
f|cAA AGF|cAA A2f|cAA AGA|FDD D2f|cAA AGF|cAA AGF|
G3 AGA|FDD D2:|
|:c|f3 g3|afd dAF|f3 g3|afd d2 f/g/|afa geg|fde f2d|cAF G2A|FDD D2:|

